X: 3
T: Piiripolkka
O: Trad Finland
Z: John Chambers <jc@trillian.mit.edu>
M: 2/4
L: 1/16
K: G
| "G"G2G2 GAB2 | G2G2 GAB2 | "D7"A4 F2EF |1 "G"G2E2 "(D7)"D4 :|2 "G"G2G2 G4 :|
|: "G"{B}d2B2 d2B2 |     G2G2 G4 | "C"{c}e2c2 e2c2 | "D7"A2A2 A4 |
|  "G"{B}d2B2 d2B2 | "Em"G2G2 G4 | "D7"A2F2   D2EF |  "G"G2G2 G4 :|
